X: 1113
T: Waiting For The Federals
B: max new tunes
B: steve tunes
M:4/4
Q: 1/4=100
K:Gmajor
V:1 
"G"B4 B2 AB|d2 B2 BA G2|B4 d3 B|"C"ABAG E2 D2|
"G" B4 B2 AB|d2 B2 BA G2|"C"ABAG "D"E2 F2|"G"G3 A G4:|
"G" g4 gage|d2 B2 BA G2|g4 gfga|"C"be- ef e3 f|
 gaba g2 ge|"G"eged BA G2|"C"ABAG "D"E2 F2|"G"G3 A G4:|
% abcbook-tune_id 62b5b3ccf289770b2b3d5bbb


% abcbook-boost 15
% abcbook-tablature 
% abcbook-transpose 
% abcbook-lastupdated 1656814724283
% abcbook-soundfonts 
% abcbook-repeats 3


